X: 28594
T: Murty Rabbett's
R: polka
M: 2/4
K: Gmajor
b>a gB|dc c/B/c|a>g fd|e/d/^c/d/ e/d/c/d/|
b>a gB|dc c/B/c|a>g fd|1 ef ga:|2 ef g2||
d2g2|e2a2|d2ae|da b2|
d2g2|eg a>g|fd ef|gb g2||

